X:1
T:The Rooster
M:6/8
L:1/8
Q:80
C:Trad.
S:Jig
K:HP
|: {g}Ad{c}d{g}ded | \
{g}cAB{g}c2B | \
{g}Ad{c}d{g}dcd |
{g}ea{g}agec | \
{g}Ad{c}d{g}ded | \
{g}cAB{g}c2a |
ged{g}cde | \
fd{c}d{g}d2|1 B:|2
e|] |:
{g}f2{GdG}f{g}fed | \
{g}e2{GdG}e{g}edc | \
{g}d{e}d{c}d{g}dcd |
{g}ea{g}agec | \
{g}f2{GdG}f{g}fed | \
{g}e2{GdG}e{g}e2a |
ged{g}cde | \
fd{c}d|1 {g}d2e:|2
{g}d3|]

